X:1
T:Bonny Prince Charlie WHL.[020]
T:Bonny Prince Charlie WHL.[020]
T:Cam ye by Athol WHL.[020]
T:Neil Gow Junior
C:Neil Gow Junior
L:1/8
Q:1/4=80
M:6/8
K:D
V:1 treble 
V:1
 F>ED D2 B | AFd AFD | FEE EFA | d>cB BAF | Adf edc | BAF ABd | F>EF dcB | ADF{F} E2 D || %8
w: Came ye by Atth- ol|lad wi' the Shil- a- beg,|Down by the Tum- mel or|banks of the Gar- * ry?|Saw ye my lad wi' his|bon- net and white cock- ade|leav- ing his mount- ains to|fol- low Prince Char- lie|
 d2 A e2 A | f>ed dAB | AFD D2 d | f g/f/ e/d/{f} e2 d | d2 A efg |{g} f>ed dcB | A>BA ADE | %15
w: Char- lie Char- lie|wha wad na fol- low thee|Lang thou hast lov'd an'|trust- * ed us * fair- ly|Char- lie Char- * lie|wha wad na fol- low thee,|King of the High- land hearts|
 F>GF{F} E2 D || %16
w: bon- ny Prince Char- lie|

